!!!!SEGMENT:35Chigusamusubi_c.krn
!!!OTL: 千草結
!!!OPR:Eiga Banso Kyokusyu,jidai-geki,kouhen
!!!YOY:1928
!!!ONB:LoveScene
**kern
*clefG2
*k[]
*C:
*M2/4
=1
8eeL
8ee
8ee
8eeJ
=2
8bL
8a
8b
8ddJ
=3
4ee
4ee
=4
4ee
4r
=5
2b
=6
2dd
=7
4ee
4dd
=8
4e
4r
=9
4r
4d
=10!|:
2e
=11
4aa
4ff
=12
4ee
4ee
=13
4b
4a
=14
4b
4r
=15
4ff
4ee
=16
2ff
=17
4r
4ff
=18
2ff
=19
4r
4ff
=20
2ff
=21
4ee
4r
=22
4ee
4ff#X
=23
4gg
4gg
=24
4ff#X
4r
=25
4bb
4gg
=26
4ff#X
4ee
=27
2cc
=28
4.b
8dd
=29
8eeL
8bJ
8bL
8aJ
=30
4f#X
8BL
8aJ
=31
4b
4b
=32
4b
4dd
=33
[2e
=34
4e]
4d
=:|!
*-
!!!ENC: Yukiko Yoden
!!!END: 2023/06/11
